assets/sonr-icons/usdc-fill.svg

<svg xmlns="http://www.w3.org/2000/svg" width="24" height="24" fill="none"><path fill="currentColor" d="M22 12c0 5.523-4.477 10-10 10S2 17.523 2 12 6.477 2 12 2s10 4.477 10 10m-7.075 1.719c0-1.551-.931-2.084-2.792-2.305-1.33-.177-1.596-.532-1.596-1.153s.443-1.019 1.33-1.019c.798 0 1.241.266 1.463.931a.33.33 0 0 0 .311.221h.709a.304.304 0 0 0 .311-.31v-.044a2.21 2.21 0 0 0-1.994-1.817V7.16c0-.177-.133-.311-.355-.355h-.664c-.177 0-.311.133-.355.355v1.019c-1.33.177-2.172 1.063-2.172 2.172 0 1.463.886 2.039 2.748 2.26 1.241.221 1.64.488 1.64 1.197s-.62 1.197-1.463 1.197c-1.153 0-1.552-.488-1.684-1.153-.044-.177-.177-.266-.31-.266h-.754a.303.303 0 0 0-.31.311v.044c.177 1.108.886 1.906 2.349 2.128v1.063c0 .177.133.311.355.355h.665c.177 0 .311-.133.355-.355v-1.063c1.33-.222 2.217-1.153 2.217-2.349zm-9.13-3.856c-1.285 3.413.487 7.269 3.945 8.51.133.088.266.266.266.399v.62c0 .088 0 .133-.044.177-.044.177-.221.266-.399.177a7.97 7.97 0 0 1-5.186-5.186c-1.33-4.21.975-8.687 5.186-10.017.044-.044.133-.044.177-.044.177.044.266.177.266.355v.62c0 .222-.088.355-.266.443a6.56 6.56 0 0 0-3.945 3.946m8.244-5.142c.044-.177.221-.266.399-.177a8.04 8.04 0 0 1 5.186 5.231c1.33 4.21-.975 8.687-5.186 10.017-.044.044-.133.044-.177.044-.177-.044-.266-.177-.266-.355v-.62c0-.222.088-.355.266-.443 1.817-.665 3.28-2.083 3.945-3.945 1.285-3.413-.487-7.269-3.945-8.51-.133-.089-.266-.266-.266-.443V4.9c0-.089 0-.135.044-.179"/></svg>

<svg xmlns="http://www.w3.org/2000/svg" width="24" height="24" fill="none" viewBox="0 0 24 24"><path fill="#000" d="M22 12C22 17.523 17.523 22 12 22C6.477 22 2 17.523 2 12C2 6.477 6.477 2 12 2C17.523 2 22 6.477 22 12ZM14.925 13.719C14.925 12.168 13.994 11.635 12.133 11.414C10.803 11.237 10.537 10.882 10.537 10.261C10.537 9.64 10.98 9.242 11.867 9.242C12.665 9.242 13.108 9.508 13.33 10.173C13.374 10.306 13.507 10.394 13.641 10.394H14.35C14.527 10.394 14.661 10.261 14.661 10.084V10.04C14.484 9.065 13.686 8.311 12.667 8.223V7.16C12.667 6.983 12.534 6.849 12.312 6.805H11.648C11.471 6.805 11.337 6.938 11.293 7.16V8.179C9.963 8.356 9.121 9.242 9.121 10.351C9.121 11.814 10.007 12.39 11.869 12.611C13.11 12.832 13.509 13.099 13.509 13.808C13.509 14.517 12.889 15.005 12.046 15.005C10.893 15.005 10.494 14.517 10.362 13.852C10.318 13.675 10.185 13.586 10.052 13.586H9.298C9.121 13.586 8.988 13.719 8.988 13.897V13.941C9.165 15.049 9.874 15.847 11.337 16.069V17.132C11.337 17.309 11.47 17.443 11.692 17.487H12.357C12.534 17.487 12.668 17.354 12.712 17.132V16.069C14.042 15.847 14.929 14.916 14.929 13.72L14.925 13.719ZM5.795 9.863C4.51 13.276 6.282 17.132 9.74 18.373C9.873 18.461 10.006 18.639 10.006 18.772V19.392C10.006 19.48 10.006 19.525 9.962 19.569C9.918 19.746 9.741 19.835 9.563 19.746C7.08 18.948 5.175 17.042 4.377 14.56C3.047 10.35 5.352 5.873 9.563 4.543C9.607 4.499 9.696 4.499 9.74 4.499C9.917 4.543 10.006 4.676 10.006 4.854V5.474C10.006 5.696 9.918 5.829 9.74 5.917C7.923 6.581 6.46 8.001 5.795 9.863ZM14.039 4.721C14.083 4.544 14.26 4.455 14.438 4.544C16.876 5.342 18.826 7.248 19.624 9.775C20.954 13.985 18.649 18.462 14.438 19.792C14.394 19.836 14.305 19.836 14.261 19.836C14.084 19.792 13.995 19.659 13.995 19.481V18.861C13.995 18.639 14.083 18.506 14.261 18.418C16.078 17.753 17.541 16.335 18.206 14.473C19.491 11.06 17.719 7.204 14.261 5.963C14.128 5.874 13.995 5.697 13.995 5.52V4.9C13.995 4.811 13.995 4.765 14.039 4.721Z"/></svg>
